images/dist/look.svg

<svg width="40" height="32" viewBox="0 0 40 32" fill="none" xmlns="http://www.w3.org/2000/svg">
<path d="M20.0002 0.222229C14.3891 0.222229 9.89605 2.77778 6.62522 5.81945C3.37522 8.83334 1.20161 12.4445 0.173828 14.9236C-0.0553385 15.4722 -0.0553385 16.0833 0.173828 16.632C1.20161 19.1111 3.37522 22.7222 6.62522 25.7361C9.89605 28.7778 14.3891 31.3333 20.0002 31.3333C25.6113 31.3333 30.1044 28.7778 33.3752 25.7361C36.6252 22.7153 38.7988 19.1111 39.8335 16.632C40.0627 16.0833 40.0627 15.4722 39.8335 14.9236C38.7988 12.4445 36.6252 8.83334 33.3752 5.81945C30.1044 2.77778 25.6113 0.222229 20.0002 0.222229ZM10.0002 15.7778C10.0002 13.1256 11.0538 10.5821 12.9292 8.70672C14.8045 6.83135 17.3481 5.77778 20.0002 5.77778C22.6524 5.77778 25.1959 6.83135 27.0713 8.70672C28.9466 10.5821 30.0002 13.1256 30.0002 15.7778C30.0002 18.43 28.9466 20.9735 27.0713 22.8489C25.1959 24.7242 22.6524 25.7778 20.0002 25.7778C17.3481 25.7778 14.8045 24.7242 12.9292 22.8489C11.0538 20.9735 10.0002 18.43 10.0002 15.7778ZM20.0002 11.3333C20.0002 13.7847 18.0072 15.7778 15.5558 15.7778C15.0627 15.7778 14.5905 15.6945 14.1461 15.5486C13.7641 15.4236 13.3197 15.6597 13.3336 16.0625C13.3544 16.5417 13.4238 17.0208 13.5558 17.5C14.5072 21.0556 18.1669 23.1667 21.7224 22.2153C25.278 21.2639 27.3891 17.6042 26.4377 14.0486C25.6669 11.1667 23.1183 9.22917 20.2849 9.11112C19.8822 9.09723 19.6461 9.53473 19.7711 9.92362C19.9169 10.3681 20.0002 10.8403 20.0002 11.3333Z" fill="#FFC107"/>
</svg>

<svg width="40" height="32" fill="none" xmlns="http://www.w3.org/2000/svg"><path d="M20 .222C14.39.222 9.896 2.778 6.625 5.82c-3.25 3.014-5.423 6.625-6.451 9.105a2.2 2.2 0 0 0 0 1.708c1.028 2.48 3.201 6.09 6.451 9.104C9.896 28.778 14.39 31.333 20 31.333s10.104-2.555 13.375-5.597c3.25-3.02 5.424-6.625 6.459-9.104a2.21 2.21 0 0 0 0-1.708c-1.035-2.48-3.209-6.09-6.459-9.105C30.105 2.778 25.611.222 20 .222ZM10 15.778a10 10 0 1 1 20 0 10 10 0 0 1-20 0Zm10-4.445a4.449 4.449 0 0 1-5.854 4.216c-.382-.125-.826.11-.812.514a6.67 6.67 0 0 0 8.389 6.153 6.67 6.67 0 0 0 4.715-8.167 6.665 6.665 0 0 0-6.153-4.938c-.403-.014-.639.424-.514.813a4.5 4.5 0 0 1 .23 1.41Z" fill="#FFC107"/></svg>
